Papirus/48x48/apps/remnote.svg

<svg width="48" height="48" version="1.1" xmlns="http://www.w3.org/2000/svg">
 <rect x="4" y="5" width="40" height="40" ry="9.2658386" style="opacity:.2"/>
 <rect x="4" y="4" width="40" height="40" ry="9.2658386" style="fill:#e4e4e4"/>
 <path d="m22.378637 11.000001c-0.622403 0-1.534876-0.0017-1.772683 0.118087-0.209132 0.104919-0.377617 0.273056-0.484195 0.478963-0.121119 0.234057-0.121713 0.539655-0.121713 1.152508v6.910735l-4.360127-4.885623c-0.44019-0.43358-0.659033-0.649224-0.912858-0.730432-0.223251-0.07151-0.463055-0.07151-0.686291 0-0.253829 0.08122-0.474867 0.296852-0.915096 0.730432l-2.294359 2.259117c-0.439899 0.433285-0.65939 0.651215-0.741826 0.901001-0.07255 0.219744-0.07256 0.456025 0 0.675788 0.08243 0.249815 0.301927 0.465522 0.741826 0.898829l4.959638 4.491087h-7.011887c-0.6224234 0-0.9349821 0.03106-1.1727169 0.150261-0.2091156 0.10493-0.3776421 0.270838-0.4841912 0.476753-0.1211311 0.234025-0.1221579 1.04139-0.1221579 1.654224v3.060191c0 0.612794 0.00131 0.620378 0.1221579 0.854377 0.1065531 0.205909 0.2750756 0.371864 0.4841912 0.476751 0.2377348 0.119257 0.550301 0.329996 1.1727169 0.32695h10.279079l3.518143-4.52738c0.374338-0.607174 0.760153-0.98247 1.422653-1.137328 0.692058 0.04562 1.029605 0.629188 1.422532 1.137328l3.518189 4.52738h10.281294c0.622492 0 0.932678-0.207942 1.170477-0.32695 0.209132-0.104887 0.379875-0.270842 0.486399-0.476751 0.121118-0.233999 0.122168-0.241583 0.122168-0.854377v-3.060191c0-0.612834-0.0013-1.420199-0.122168-1.654224-0.106524-0.205915-0.277267-0.371822-0.486399-0.476753-0.237799-0.119368-0.547985-0.150261-1.170477-0.150261h-7.014146l4.959636-4.491087c0.439862-0.433307 0.661607-0.649027 0.744077-0.898829 0.07258-0.219763 0.07258-0.456032 0-0.675788-0.08248-0.249786-0.304215-0.467716-0.744077-0.901001l-2.29211-2.259117c-0.44023-0.433587-0.661253-0.649224-0.915105-0.730432-0.223336-0.07151-0.463077-0.07151-0.686281 0-0.253848 0.08122-0.474909 0.296845-0.9151 0.730432l-4.3578 4.885623v-6.910735c0-0.612853-8.17e-4 -0.918451-0.121712-1.152508-0.106571-0.205907-0.277269-0.374044-0.486388-0.478963-0.237807-0.119258-1.148183-0.118087-1.770585-0.118087zm6.561025 19.999999h-9.881517l-3.125043 4.198556c-0.686512 0.901561-1.029686 1.352618-1.021687 1.729842 0.0076 0.328412 0.16159 0.637368 0.424213 0.839808 0.301849 0.232676 0.874493 0.231794 2.018945 0.231794h13.288613c1.144464 0 1.717153 9.63e-4 2.018944-0.231794 0.262589-0.20244 0.419426-0.511396 0.426459-0.839808 0.0082-0.377224-0.335158-0.828281-1.021688-1.729842z" style="fill-rule:evenodd;opacity:.2;stop-color:#000000"/>
 <path d="m22.378637 10.000001c-0.622403 0-1.534876-0.0017-1.772683 0.118087-0.209132 0.104919-0.377617 0.273056-0.484195 0.478963-0.121119 0.234057-0.121713 0.539655-0.121713 1.152508v6.910735l-4.360127-4.885623c-0.44019-0.43358-0.659033-0.649224-0.912858-0.730432-0.223251-0.07151-0.463055-0.07151-0.686291 0-0.253829 0.08122-0.474867 0.296852-0.915096 0.730432l-2.294359 2.259117c-0.439899 0.433285-0.65939 0.651215-0.741826 0.901001-0.07255 0.219744-0.07256 0.456025 0 0.675788 0.08243 0.249815 0.301927 0.465522 0.741826 0.898829l4.959638 4.491087h-7.011887c-0.6224234 0-0.9349821 0.03106-1.1727169 0.150261-0.2091156 0.10493-0.3776421 0.270838-0.4841912 0.476753-0.1211311 0.234025-0.1221579 1.04139-0.1221579 1.654224v3.060191c0 0.612794 0.00131 0.620378 0.1221579 0.854377 0.1065531 0.205909 0.2750756 0.371864 0.4841912 0.476751 0.2377348 0.119257 0.550301 0.329996 1.1727169 0.32695h10.279079l3.518143-4.52738c0.374338-0.607174 0.760153-0.98247 1.422653-1.137328 0.692058 0.04562 1.029605 0.629188 1.422532 1.137328l3.518189 4.52738h10.281294c0.622492 0 0.932678-0.207942 1.170477-0.32695 0.209132-0.104887 0.379875-0.270842 0.486399-0.476751 0.121118-0.233999 0.122168-0.241583 0.122168-0.854377v-3.060191c0-0.612834-0.0013-1.420199-0.122168-1.654224-0.106524-0.205915-0.277267-0.371822-0.486399-0.476753-0.237799-0.119368-0.547985-0.150261-1.170477-0.150261h-7.014146l4.959636-4.491087c0.439862-0.433307 0.661607-0.649027 0.744077-0.898829 0.07258-0.219763 0.07258-0.456032 0-0.675788-0.08248-0.249786-0.304215-0.467716-0.744077-0.901001l-2.29211-2.259117c-0.44023-0.433587-0.661253-0.649224-0.915105-0.730432-0.223336-0.07151-0.463077-0.07151-0.686281 0-0.253848 0.08122-0.474909 0.296845-0.9151 0.730432l-4.3578 4.885623v-6.910735c0-0.612853-8.17e-4 -0.918451-0.121712-1.152508-0.106571-0.205907-0.277269-0.374044-0.486388-0.478963-0.237807-0.1192587-1.148183-0.118087-1.770585-0.118087zm6.561025 19.999999h-9.881517l-3.125043 4.198556c-0.686512 0.901561-1.029686 1.352618-1.021687 1.729842 0.0076 0.328412 0.16159 0.637368 0.424213 0.839808 0.301849 0.232676 0.874493 0.231794 2.018945 0.231794h13.288613c1.144464 0 1.717153 9.63e-4 2.018944-0.231794 0.262589-0.20244 0.419426-0.511396 0.426459-0.839808 0.0082-0.377224-0.335158-0.828281-1.021688-1.729842z" style="fill-rule:evenodd;fill:#506cf7;stop-color:#000000"/>
 <path d="M 13.265625 4 C 8.1323504 4 4 8.1323504 4 13.265625 L 4 14.265625 C 4 9.1323504 8.1323504 5 13.265625 5 L 34.734375 5 C 39.86765 5 44 9.1323504 44 14.265625 L 44 13.265625 C 44 8.1323504 39.86765 4 34.734375 4 L 13.265625 4 z " style="fill:#ffffff;opacity:.2"/>
 <path d="m22.378906 10c-0.622403 0-1.53563-0.0025995-1.773437 0.117188-0.209132 0.104919-0.377797 0.274561-0.484375 0.480468-0.121119 0.234057-0.121094 0.539491-0.121094 1.152344v1c0-0.612853-2.5e-5 -0.918287 0.121094-1.152344 0.106578-0.205907 0.275243-0.375549 0.484375-0.480468 0.237807-0.119787 1.151034-0.117188 1.773437-0.117188h3.242188c0.622402 0 1.533677-0.002071 1.771484 0.117188 0.209119 0.104919 0.379757 0.274561 0.486328 0.480468 0.120895 0.234057 0.121094 0.539491 0.121094 1.152344v-1c0-0.612853-1.99e-4 -0.918287-0.121094-1.152344-0.106571-0.205907-0.277209-0.375549-0.486328-0.480468-0.237807-0.1192592-1.149082-0.117188-1.771484-0.117188h-3.242188zm-7.99414 2.990234c-0.115762 0-0.232132 0.018933-0.34375 0.054688-0.253829 0.08122-0.475787 0.296889-0.916016 0.730469l-2.292969 2.257812c-0.439899 0.433285-0.659751 0.652558-0.742187 0.902344-0.07255 0.219744-0.07256 0.456018 0 0.675781 0.018218 0.055214 0.045615 0.10751 0.078125 0.16211 0.114399-0.193421 0.320553-0.40189 0.664062-0.740235l2.292969-2.257812c0.440229-0.43358 0.662187-0.649249 0.916016-0.730469 0.223236-0.07151 0.462296-0.07151 0.685546 0 0.253826 0.081208 0.473873 0.296889 0.914063 0.730469l4.359375 4.884765v-1l-4.359375-4.884765c-0.44019-0.43358-0.660237-0.649261-0.914063-0.730469-0.111625-0.035755-0.226034-0.054688-0.341796-0.054688zm19.230468 0c-0.115752 0-0.230195 0.018933-0.341796 0.054688-0.253848 0.08122-0.475825 0.296882-0.916016 0.730469l-4.357422 4.884765v1l4.357422-4.884765c0.440191-0.433587 0.662168-0.649249 0.916016-0.730469 0.223203-0.07151 0.46221-0.07151 0.685546 0 0.253852 0.081208 0.475786 0.296882 0.916016 0.730469l2.291016 2.257812c0.34348 0.338345 0.550997 0.546814 0.666015 0.740235 0.032686-0.054599 0.059898-0.106899 0.078125-0.16211 0.07258-0.219763 0.07258-0.456025 0-0.675781-0.08248-0.249786-0.304278-0.469059-0.74414-0.902344l-2.291016-2.257812c-0.44023-0.433587-0.662164-0.649261-0.916016-0.730469-0.111668-0.035755-0.227997-0.054688-0.34375-0.054688zm-24.835937 10.009766c-0.6224234 0-0.9360934 0.03119-1.1738281 0.150391-0.2091157 0.10493-0.3758728 0.270647-0.4824219 0.476562-0.1211311 0.234025-0.1230469 1.041463-0.1230469 1.654297v1c0-0.612834 0.0019158-1.420272 0.1230469-1.654297 0.1065491-0.205915 0.2733062-0.371632 0.4824219-0.476562 0.2377347-0.119201 0.5514047-0.150391 1.1738281-0.150391h7.0117191l-1.103516-1h-5.9082031zm24.53125 0-1.103516 1h7.013672c0.622492 0 0.932123 0.031023 1.169922 0.150391 0.209132 0.104931 0.379804 0.270647 0.486328 0.476562 0.120868 0.234025 0.123047 1.041463 0.123047 1.654297v-1c0-0.612834-0.002179-1.420272-0.123047-1.654297-0.106524-0.205915-0.277196-0.371631-0.486328-0.476562-0.237799-0.119368-0.54743-0.150391-1.169922-0.150391h-5.910156zm-13.474609 7-0.777344 1h9.880859l-0.777344-1h-8.326171zm9.103515 1 3.126953 4.199219c0.431636 0.56683 0.712847 0.943763 0.871094 1.248047 0.091041-0.157011 0.146432-0.334661 0.150391-0.519532 0.0082-0.377224-0.334955-0.826954-1.021485-1.728515l-2.382812-3.199219h-0.744141zm-9.880859 0h-0.744141l-2.380859 3.199219c-0.686512 0.901561-1.029484 1.351291-1.021485 1.728515 0.0043 0.185793 0.059224 0.363909 0.150391 0.521485 0.158045-0.30451 0.438749-0.682224 0.871094-1.25l3.125-4.199219z" style="fill-rule:evenodd;fill:#ffffff;opacity:.2;stop-color:#000000"/>
</svg>

<svg xmlns="http://www.w3.org/2000/svg" width="48" height="48" version="1.1">
 <rect style="opacity:0.2" width="40" height="40" x="4" y="5" rx="9.25" ry="9.25"/>
 <rect style="fill:#e4e4e4" width="40" height="40" x="4" y="4" rx="9.25" ry="9.25"/>
 <path style="opacity:0.2;fill:#ffffff" d="M 13.25,4 C 8.1255,4 4,8.1255 4,13.25 V 14.25 C 4,9.1255 8.1255,5 13.25,5 H 34.75 C 39.874,5 44,9.1255 44,14.25 V 13.25 C 44,8.1255 39.874,4 34.75,4 Z"/>
 <path style="opacity:0.2" d="M 22.38,11 C 21.76,11 20.84,11 20.61,11.12 20.4,11.22 20.23,11.39 20.12,11.6 20,11.83 20,12.14 20,12.75 V 19.66 L 15.64,14.78 C 15.2,14.34 14.98,14.12 14.73,14.04 14.5,13.97 14.26,13.97 14.04,14.04 13.79,14.12 13.57,14.34 13.13,14.78 L 10.83,17.03 C 10.39,17.47 10.17,17.68 10.09,17.93 10.02,18.16 10.02,18.39 10.09,18.61 10.17,18.86 10.39,19.08 10.83,19.51 L 15.79,24 H 8.78 C 8.16,24 7.84,24.03 7.61,24.15 7.4,24.26 7.23,24.42 7.12,24.63 7,24.86 7,25.67 7,26.28 V 29.34 C 7,29.95 7,29.96 7.12,30.2 7.23,30.4 7.4,30.57 7.61,30.67 7.84,30.79 8.16,31 8.78,31 H 19.06 L 22.58,26.47 C 22.95,25.86 23.34,25.49 24,25.34 24.69,25.38 25.03,25.96 25.42,26.47 L 28.94,31 H 39.22 C 39.84,31 40.15,30.79 40.39,30.67 40.6,30.57 40.77,30.4 40.88,30.2 41,29.96 41,29.95 41,29.34 V 26.28 C 41,25.67 41,24.86 40.88,24.63 40.77,24.42 40.6,24.26 40.39,24.15 40.15,24.03 39.84,24 39.22,24 H 32.21 L 37.17,19.51 C 37.61,19.08 37.83,18.86 37.91,18.61 37.98,18.39 37.98,18.16 37.91,17.93 37.83,17.68 37.61,17.47 37.17,17.03 L 34.87,14.78 C 34.43,14.34 34.21,14.12 33.96,14.04 33.74,13.97 33.5,13.97 33.27,14.04 33.02,14.12 32.8,14.34 32.36,14.78 L 28,19.66 V 12.75 C 28,12.14 28,11.83 27.88,11.6 27.77,11.39 27.6,11.22 27.39,11.12 27.15,11 26.24,11 25.62,11 Z M 28.94,31 H 19.06 L 15.93,35.2 C 15.25,36.1 14.9,36.55 14.91,36.93 14.92,37.26 15.07,37.57 15.34,37.77 15.64,38 16.21,38 17.36,38 H 30.64 C 31.79,38 32.36,38 32.66,37.77 32.92,37.57 33.08,37.26 33.09,36.93 33.1,36.55 32.75,36.1 32.07,35.2 Z"/>
 <path style="fill:#506cf7" d="M 22.38,10 C 21.76,10 20.84,10 20.61,10.12 20.4,10.22 20.23,10.39 20.12,10.6 20,10.83 20,11.14 20,11.75 V 18.66 L 15.64,13.78 C 15.2,13.34 14.98,13.12 14.73,13.04 14.5,12.97 14.26,12.97 14.04,13.04 13.79,13.12 13.57,13.34 13.13,13.78 L 10.83,16.03 C 10.39,16.47 10.17,16.68 10.09,16.93 10.02,17.16 10.02,17.39 10.09,17.61 10.17,17.86 10.39,18.08 10.83,18.51 L 15.79,23 H 8.78 C 8.16,23 7.84,23.03 7.61,23.15 7.4,23.26 7.23,23.42 7.12,23.63 7,23.86 7,24.67 7,25.28 V 28.34 C 7,28.95 7,28.96 7.12,29.2 7.23,29.4 7.4,29.57 7.61,29.67 7.84,29.79 8.16,30 8.78,30 H 19.06 L 22.58,25.47 C 22.95,24.86 23.34,24.49 24,24.34 24.69,24.38 25.03,24.96 25.42,25.47 L 28.94,30 H 39.22 C 39.84,30 40.15,29.79 40.39,29.67 40.6,29.57 40.77,29.4 40.88,29.2 41,28.96 41,28.95 41,28.34 V 25.28 C 41,24.67 41,23.86 40.88,23.63 40.77,23.42 40.6,23.26 40.39,23.15 40.15,23.03 39.84,23 39.22,23 H 32.21 L 37.17,18.51 C 37.61,18.08 37.83,17.86 37.91,17.61 37.98,17.39 37.98,17.16 37.91,16.93 37.83,16.68 37.61,16.47 37.17,16.03 L 34.87,13.78 C 34.43,13.34 34.21,13.12 33.96,13.04 33.74,12.97 33.5,12.97 33.27,13.04 33.02,13.12 32.8,13.34 32.36,13.78 L 28,18.66 V 11.75 C 28,11.14 28,10.83 27.88,10.6 27.77,10.39 27.6,10.22 27.39,10.12 27.15,10 26.24,10 25.62,10 Z M 28.94,30 H 19.06 L 15.93,34.2 C 15.25,35.1 14.9,35.55 14.91,35.93 14.92,36.26 15.07,36.57 15.34,36.77 15.64,37 16.21,37 17.36,37 H 30.64 C 31.79,37 32.36,37 32.66,36.77 32.92,36.57 33.08,36.26 33.09,35.93 33.1,35.55 32.75,35.1 32.07,34.2 Z"/>
 <path style="opacity:0.2;fill:#ffffff" d="M 22.381,10 C 21.761,10 20.839,9.9991 20.609,10.119 20.399,10.219 20.229,10.39 20.119,10.6 19.999,10.83 20,11.14 20,11.75 V 12.75 C 20,12.14 19.999,11.83 20.119,11.6 20.229,11.39 20.399,11.219 20.609,11.119 20.839,10.999 21.761,11 22.381,11 H 25.619 C 26.239,11 27.151,10.999 27.391,11.119 27.601,11.219 27.771,11.39 27.881,11.6 28.001,11.83 28,12.14 28,12.75 V 11.75 C 28,11.14 28.001,10.83 27.881,10.6 27.771,10.39 27.601,10.219 27.391,10.119 27.151,9.9991 26.239,10 25.619,10 Z M 14.381,12.988 C 14.265,12.988 14.149,13.004 14.039,13.039 13.789,13.119 13.571,13.339 13.131,13.779 L 10.83,16.029 C 10.39,16.469 10.17,16.68 10.09,16.93 10.02,17.16 10.02,17.389 10.09,17.609 10.107,17.663 10.135,17.716 10.166,17.77 10.279,17.578 10.486,17.373 10.83,17.029 L 13.131,14.779 C 13.571,14.339 13.789,14.119 14.039,14.039 14.259,13.969 14.5,13.969 14.73,14.039 14.98,14.119 15.201,14.339 15.641,14.779 L 20,19.66 V 18.66 L 15.641,13.779 C 15.201,13.339 14.98,13.119 14.73,13.039 14.615,13.004 14.497,12.988 14.381,12.988 Z M 33.619,12.988 C 33.503,12.988 33.385,13.004 33.27,13.039 33.02,13.119 32.799,13.339 32.359,13.779 L 28,18.66 V 19.66 L 32.359,14.779 C 32.799,14.339 33.02,14.119 33.27,14.039 33.5,13.969 33.741,13.969 33.961,14.039 34.211,14.119 34.429,14.339 34.869,14.779 L 37.17,17.029 C 37.514,17.373 37.721,17.578 37.834,17.77 37.865,17.716 37.893,17.663 37.91,17.609 37.98,17.389 37.98,17.16 37.91,16.93 37.83,16.68 37.61,16.469 37.17,16.029 L 34.869,13.779 C 34.429,13.339 34.211,13.119 33.961,13.039 33.851,13.004 33.735,12.988 33.619,12.988 Z M 8.7793,23 C 8.1593,23 7.8394,23.03 7.6094,23.15 7.3994,23.26 7.2291,23.421 7.1191,23.631 6.9991,23.861 7,24.669 7,25.279 V 26.279 C 7,25.669 6.9991,24.861 7.1191,24.631 7.2291,24.421 7.3994,24.26 7.6094,24.15 7.8394,24.03 8.1593,24 8.7793,24 H 15.789 L 14.686,23 Z M 33.314,23 32.211,24 H 39.221 C 39.841,24 40.151,24.03 40.391,24.15 40.601,24.26 40.771,24.421 40.881,24.631 41.001,24.861 41,25.669 41,26.279 V 25.279 C 41,24.669 41.001,23.861 40.881,23.631 40.771,23.421 40.601,23.26 40.391,23.15 40.151,23.03 39.841,23 39.221,23 Z M 19.838,30 19.061,31 H 28.939 L 28.162,30 Z M 28.939,31 32.07,35.199 C 32.498,35.765 32.778,36.143 32.938,36.447 33.028,36.291 33.084,36.114 33.09,35.93 33.1,35.55 32.75,35.099 32.07,34.199 L 29.686,31 Z M 19.061,31 H 18.314 L 15.93,34.199 C 15.25,35.099 14.9,35.55 14.91,35.93 14.916,36.116 14.969,36.294 15.061,36.451 15.219,36.146 15.501,35.767 15.93,35.199 Z"/>
</svg>
